X:7
T:Midnight on the Water
C:Luke Thomasson
M:3/4
L:1/8
Q:1/8=250
K:D
DE|:F2F2F2|F2F2F2|A4AB|AFE/F/ EDE|
F2d2Bd|A3F DE|F2AF E/F/E|1D4DE:|2D4Bc|
|:d2d3e|dc BA Bc|d3B AF|D4[d2F2]|
e4ef|e3d ed|f3a fe|dc BA Bc|
d3c de|dc BA Bc|d3B AF|D4DE|
F2d2Bd|A3F DE|F2AF ED|1D4Bc:|2D6|
